X:131
T: Qipeng haozi
N: C1625
O: China, Zhejiang, Zhoushan
S: III, 637(2)]
R: Haozi, Chuangong haozi]
M: 2/4
L: 1/16
K: C
d2d2g2ed | c4d2z2
A2A2d2cA | G3EA2z2
d2d2g2g2 | e2a2gedz
A2d2cd3 | d4dcAc | G2G6
A8 | D8 | G8- | G8

